src/static/iconos/basura.svg

<svg width="31" height="37" viewBox="0 0 31 37" fill="none" xmlns="http://www.w3.org/2000/svg">
<path d="M0.458496 3.77777H30.5418V6.72222H0.458496V3.77777Z" fill="#CE4242"/>
<path d="M27.9768 4.5139H2.95459V32.2285C2.95459 35.2171 5.55917 36.3654 8.77334 36.3654H22.158C25.3722 36.3654 27.9768 35.2171 27.9768 32.2285V4.5139ZM11.5418 3.77779V0.833344H19.4585V3.77779" fill="#CE4242"/>
<path d="M27.375 19.2361V34.4155L25.2375 36.1667H13.125L27.375 19.2361Z" fill="#9C3333"/>
<path d="M11.5418 3.77779V0.833344H19.4585V3.77779M27.3752 10.4028V33.2222C27.3752 34.0032 27.0415 34.7521 26.4477 35.3043C25.8538 35.8565 25.0483 36.1667 24.2085 36.1667H6.79183C5.95198 36.1667 5.14652 35.8565 4.55266 35.3043C3.95879 34.7521 3.62516 34.0032 3.62516 33.2222V10.4028M19.4585 12.7951V32.4861M11.5418 12.7951V32.4861M0.458496 3.77779H30.5418V6.72223H0.458496V3.77779Z" stroke="black" stroke-width="0.5" stroke-miterlimit="10" stroke-linecap="round" stroke-linejoin="round"/>
</svg>

<svg xmlns="http://www.w3.org/2000/svg" width="31" height="37" fill="none" viewBox="0 0 31 37"><path fill="#ce4242" d="M.458 3.778h30.084v2.944H.458z"/><path fill="#ce4242" d="M27.977 4.514H2.955v27.714c0 2.99 2.604 4.137 5.818 4.137h13.385c3.214 0 5.819-1.148 5.819-4.137zm-16.435-.736V.833h7.917v2.945"/><path fill="#9c3333" d="M27.375 19.236v15.18l-2.137 1.75H13.125z"/><path stroke="#000" stroke-linecap="round" stroke-linejoin="round" stroke-miterlimit="10" stroke-width=".5" d="M11.542 3.778V.833h7.917v2.945m7.916 6.625v22.82c0 .78-.334 1.53-.927 2.081-.594.552-1.4.863-2.24.863H6.793c-.84 0-1.645-.31-2.24-.863a2.84 2.84 0 0 1-.927-2.082v-22.82m15.834 2.393v19.691m-7.917-19.69v19.69M.458 3.778h30.084v2.944H.458z"/></svg>
